X:1027
T:Bairisch - schottisch/schottische/scottish
C:Josef Eischiel
S:Oberoesterreichisches Volksliedwerk MVIII 10
A:Mauthausen
Z:abc transcription Simon Wascher
N:please mail errors to: simon.wascher@chello.at
M:2/4
L:1/16
K:G
AA|A2d2 f2ed|c2B2B4|e2e2 c2cc|f2d2A 2AA|
A2d2 f2ed|c2B2B4|e2e2 c2cc|d2d2d2:|
|:dd|d2cd e2d2|d2B2 Bcd2|c2A2 ABc2|B2G2 GAB2|
d2cd e2d2|d2B2 Bcd2|c2A2 ABA2|G2G2G2:|


